assets/images/apply.svg

<?xml version="1.0" encoding="UTF-8"?>
<!DOCTYPE svg PUBLIC "-//W3C//DTD SVG 1.1//EN" "http://www.w3.org/Graphics/SVG/1.1/DTD/svg11.dtd">
<svg xmlns="http://www.w3.org/2000/svg" version="1.1" width="120px" height="120px" style="shape-rendering:geometricPrecision; text-rendering:geometricPrecision; image-rendering:optimizeQuality; fill-rule:evenodd; clip-rule:evenodd" xmlns:xlink="http://www.w3.org/1999/xlink">
<g><path style="opacity:0.714" fill="#fefffe" d="M 55.5,5.5 C 84.7747,5.62437 103.608,19.6244 112,47.5C 116.357,80.2968 102.857,101.797 71.5,112C 42.3348,116.17 21.5015,105.003 9,78.5C 0.350963,46.5257 10.851,23.359 40.5,9C 45.5452,7.42533 50.5452,6.25867 55.5,5.5 Z M 49.5,10.5 C 80.0473,7.90579 99.5473,21.2391 108,50.5C 110.564,80.5538 97.3975,99.7205 68.5,108C 38.9942,110.503 19.8275,97.67 11,69.5C 8.01457,39.3485 20.8479,19.6818 49.5,10.5 Z M 54.5,31.5 C 56.0898,31.6282 57.4231,32.2949 58.5,33.5C 61.4676,38.9639 64.6342,44.2972 68,49.5C 66.7834,53.1574 65.6167,56.9907 64.5,61C 64.7916,64.3987 66.1249,67.2321 68.5,69.5C 69.5,69.1667 70.1667,68.5 70.5,67.5C 69.1491,65.5455 68.4825,63.3788 68.5,61C 68.8893,57.3934 70.2226,54.2268 72.5,51.5C 70.8985,48.6622 70.3985,45.6622 71,42.5C 73.5918,41.0183 75.9251,41.3517 78,43.5C 80,46.8333 82,50.1667 84,53.5C 88.908,68.4398 84.0747,78.6064 69.5,84C 60.4968,85.8879 52.9968,83.3879 47,76.5C 43,69.8333 39,63.1667 35,56.5C 33.7496,53.9234 33.4163,51.2567 34,48.5C 35.7261,47.4238 37.5594,47.2571 39.5,48C 41.7121,50.9212 43.5455,54.0879 45,57.5C 46.1096,59.0368 47.6096,59.7035 49.5,59.5C 46.5187,52.0383 42.852,44.8717 38.5,38C 39.8197,34.7935 42.1531,33.7935 45.5,35C 49.032,40.3685 52.3653,45.8685 55.5,51.5C 56.325,52.3857 57.325,52.719 58.5,52.5C 58.6567,51.1266 58.49,49.7932 58,48.5C 55.422,44.5094 53.2553,40.3427 51.5,36C 51.5572,33.7911 52.5572,32.2911 54.5,31.5 Z"/></g>
<g><path style="opacity:0.646" fill="#fefffe" d="M 51.5,28.5 C 54.6492,28.2114 57.6492,28.7114 60.5,30C 62.8756,33.9187 65.3756,37.752 68,41.5C 71.0536,37.0576 74.8869,36.3909 79.5,39.5C 84.9415,46.4398 88.2749,54.2732 89.5,63C 88.9065,74.5935 83.2398,82.5935 72.5,87C 60.5652,90.3908 50.7319,87.2241 43,77.5C 38.6667,69.8333 34.3333,62.1667 30,54.5C 28.7479,48.672 30.9145,44.672 36.5,42.5C 34.2302,36.0371 36.3969,32.0371 43,30.5C 44.8951,30.6148 46.5618,31.2815 48,32.5C 49.3756,31.2949 50.5423,29.9616 51.5,28.5 Z M 54.5,31.5 C 52.5572,32.2911 51.5572,33.7911 51.5,36C 53.2553,40.3427 55.422,44.5094 58,48.5C 58.49,49.7932 58.6567,51.1266 58.5,52.5C 57.325,52.719 56.325,52.3857 55.5,51.5C 52.3653,45.8685 49.032,40.3685 45.5,35C 42.1531,33.7935 39.8197,34.7935 38.5,38C 42.852,44.8717 46.5187,52.0383 49.5,59.5C 47.6096,59.7035 46.1096,59.0368 45,57.5C 43.5455,54.0879 41.7121,50.9212 39.5,48C 37.5594,47.2571 35.7261,47.4238 34,48.5C 33.4163,51.2567 33.7496,53.9234 35,56.5C 39,63.1667 43,69.8333 47,76.5C 52.9968,83.3879 60.4968,85.8879 69.5,84C 84.0747,78.6064 88.908,68.4398 84,53.5C 82,50.1667 80,46.8333 78,43.5C 75.9251,41.3517 73.5918,41.0183 71,42.5C 70.3985,45.6622 70.8985,48.6622 72.5,51.5C 70.2226,54.2268 68.8893,57.3934 68.5,61C 68.4825,63.3788 69.1491,65.5455 70.5,67.5C 70.1667,68.5 69.5,69.1667 68.5,69.5C 66.1249,67.2321 64.7916,64.3987 64.5,61C 65.6167,56.9907 66.7834,53.1574 68,49.5C 64.6342,44.2972 61.4676,38.9639 58.5,33.5C 57.4231,32.2949 56.0898,31.6282 54.5,31.5 Z"/></g>
<g><path style="opacity:0.575" fill="#fefffe" d="M 77.5,28.5 C 84.0828,29.4424 88.0828,33.109 89.5,39.5C 86.5322,39.3739 84.5322,37.8739 83.5,35C 81.5,34 79.5,33 77.5,32C 76.3157,30.8545 76.3157,29.6879 77.5,28.5 Z"/></g>
<g><path style="opacity:0.575" fill="#fefffe" d="M 34.5,77.5 C 38.0576,80.5522 41.5576,83.8856 45,87.5C 45.4828,88.448 45.6495,89.448 45.5,90.5C 39.9993,88.6741 35.9993,85.0074 33.5,79.5C 33.8627,78.8165 34.1961,78.1499 34.5,77.5 Z"/></g>
</svg>

<svg xmlns="http://www.w3.org/2000/svg" width="120" height="120" style="shape-rendering:geometricPrecision;text-rendering:geometricPrecision;image-rendering:optimizeQuality;fill-rule:evenodd;clip-rule:evenodd"><path fill="#fefffe" d="M55.5 5.5q43.912.186 56.5 42 6.536 49.195-40.5 64.5Q27.753 118.255 9 78.5-3.973 30.539 40.5 9q7.567-2.362 15-3.5m-6 5q45.82-3.89 58.5 40 3.846 45.08-39.5 57.5-44.258 3.755-57.5-38.5-4.478-45.227 38.5-59m5 21q2.385.192 4 2a243 243 0 0 0 9.5 16A243 243 0 0 0 64.5 61q.438 5.098 4 8.5 1.5-.5 2-2-2.025-2.931-2-6.5.585-5.41 4-9.5-2.403-4.257-1.5-9 3.888-2.223 7 1l6 10Q91.362 75.91 69.5 84 55.995 86.832 47 76.5l-12-20q-1.876-3.865-1-8 2.59-1.614 5.5-.5a44.7 44.7 0 0 1 5.5 9.5q1.665 2.305 4.5 2a131 131 0 0 0-11-21.5q1.98-4.809 7-3a261 261 0 0 1 10 16.5q1.238 1.329 3 1a8.43 8.43 0 0 0-.5-4A74.3 74.3 0 0 1 51.5 36q.085-3.314 3-4.5" style="opacity:.714"/><path fill="#fefffe" d="M51.5 28.5q4.725-.434 9 1.5A208 208 0 0 0 68 41.5q4.58-6.664 11.5-2 8.163 10.41 10 23.5-.89 17.391-17 24-17.902 5.086-29.5-9.5l-13-23q-1.878-8.742 6.5-12-3.405-9.695 6.5-12 2.843.173 5 2a19.6 19.6 0 0 0 3.5-4m3 3q-2.915 1.186-3 4.5A74.3 74.3 0 0 0 58 48.5a8.43 8.43 0 0 1 .5 4q-1.762.329-3-1a261 261 0 0 0-10-16.5q-5.02-1.809-7 3a131 131 0 0 1 11 21.5q-2.835.305-4.5-2a44.7 44.7 0 0 0-5.5-9.5q-2.91-1.114-5.5.5-.876 4.135 1 8l12 20q8.995 10.332 22.5 7.5Q91.362 75.91 84 53.5l-6-10q-3.112-3.223-7-1-.903 4.743 1.5 9-3.415 4.09-4 9.5-.025 3.569 2 6.5-.5 1.5-2 2-3.562-3.402-4-8.5A243 243 0 0 1 68 49.5a243 243 0 0 1-9.5-16q-1.615-1.808-4-2" style="opacity:.646"/><path fill="#fefffe" d="M77.5 28.5q9.875 1.413 12 11-4.452-.189-6-4.5l-6-3q-1.776-1.718 0-3.5M34.5 77.5a144 144 0 0 1 10.5 10q.725 1.422.5 3-8.25-2.74-12-11 .544-1.025 1-2" style="opacity:.575"/></svg>
